X: 1
T:Paine's -- Reel
M:2/4
L:1/16
R:reel
B:Ryan's Mammoth Collection
N:357
Z:Contributed by Ray Davies,  ray:davies99.freeserve.co.uk
K:F
u(AB)|\
cAFA (cA)(fd) | cfAc agfe | fgcg bagf | ((3gfe)((3fed) .c2(AB) |
cAFA (cA)(fd) | cfAc agfe | fgcg agfd | f2a2f2:|
|:u(fg)|\
.au(f g/f/e/f/) dfcf | Acfc .a(fef) | gcac bcac | gfed .c2u(fg) |
.au(f g/f/e/f/) dfcf | Acfc .a(fef) | gcac bcac | gcde f2  :|
